src/svgs/ambulance.svg

<svg xmlns="http://www.w3.org/2000/svg" viewBox="0 0 24 24" width="512" height="512"><path d="M18 5h-1a2 2 0 00-4 0H2v13h2a3 3 0 006 0h4a3 3 0 006 0h2v-7zM7 19a1 1 0 111-1 1 1 0 01-1 1zm3-8H8v2H6v-2H4V9h2V7h2v2h2zm7 8a1 1 0 111-1 1 1 0 01-1 1zm-4-8V7h4l3 4z"/></svg>

<svg xmlns="http://www.w3.org/2000/svg" viewBox="0 0 24 24"><path d="M18,5H17a2,2,0,0,0-4,0H2V18H4a3,3,0,0,0,6,0h4a3,3,0,0,0,6,0h2V11ZM7,19a1,1,0,1,1,1-1A1,1,0,0,1,7,19Zm3-8H8v2H6V11H4V9H6V7H8V9h2Zm7,8a1,1,0,1,1,1-1A1,1,0,0,1,17,19Zm-4-8V7h4l3,4Z"/></svg>
